src/assets/selectIconsSpells/guarigione_5.svg

<svg xmlns="http://www.w3.org/2000/svg" viewBox="0 0 512 512"><path d="M0 0h512v512H0z"/><path fill="#fff" d="M54.53 118.73c-15.623 74.884 20.42 123.6 64.126 150.56-33.063-7.81-65.052-19.483-98.25-36.845 25.5 77.488 81.165 95.816 129.906 90.75-26.933 14.252-55.392 25.302-83.937 32.782 69.446 43.143 120.11 16.458 148.27-21.317a586.15 586.15 0 0 0-6.217-5.498c-5.193-3.697-10.128-7.95-14.778-12.71-5.968-5.095-12.045-10.295-18.173-15.73-33.648-29.837-67.978-65.614-69.43-112.83-.002-.05 0-.1-.002-.15-19.147-22.057-36.472-45.304-51.514-69.013zm402.94 0c-15.04 23.705-32.368 46.943-51.515 68.993 0 .026.003.05.004.078 1.388 45.967-33.476 82.66-67.968 113.386-13.87 12.355-27.86 23.824-39.904 34.44 28.298 37.26 78.683 63.125 147.54 20.35-28.543-7.48-56.98-18.53-83.91-32.78 48.737 5.056 104.38-13.28 129.876-90.75-33.197 17.363-65.187 29.036-98.25 36.845 43.705-26.962 79.75-75.675 64.125-150.56zm-132.42 3.977c-22.146.17-45.395 11.85-61.025 38.36l-7.783 13.2-7.736-13.228c-19.473-33.286-54.394-43.623-82.15-35.75h-.01c-24.486 6.947-43.386 26.957-42.307 62.048 1.187 38.61 30.602 70.852 63.38 99.918 16.39 14.533 33.36 28.123 47.412 41.52 8.357 7.968 15.777 15.842 21.332 24.142 5.568-7.718 12.923-15.143 21.217-22.86 14.382-13.384 31.856-27.363 48.64-42.314 33.567-29.9 63.045-63.115 61.95-99.398-1.118-36.974-22.723-58.38-48.618-64.127a63.71 63.71 0 0 0-14.303-1.513z"/></svg>

<?xml version="1.0" encoding="UTF-8" standalone="no"?>
<!DOCTYPE svg PUBLIC "-//W3C//DTD SVG 1.1//EN" "http://www.w3.org/Graphics/SVG/1.1/DTD/svg11.dtd">
<svg width="100%" height="100%" viewBox="0 0 512 512" version="1.1" xmlns="http://www.w3.org/2000/svg" xmlns:xlink="http://www.w3.org/1999/xlink" xml:space="preserve" xmlns:serif="http://www.serif.com/" style="fill-rule:evenodd;clip-rule:evenodd;stroke-linejoin:round;stroke-miterlimit:2;">
    <rect x="0" y="0" width="512" height="512" style="fill-rule:nonzero;"/>
    <path d="M54.53,118.73C38.907,193.614 74.95,242.33 118.656,269.29C85.593,261.48 53.604,249.807 20.406,232.445C45.906,309.933 101.571,328.261 150.312,323.195C123.379,337.447 94.92,348.497 66.375,355.977C135.821,399.12 186.485,372.435 214.645,334.66C212.586,332.813 210.513,330.98 208.428,329.162C203.235,325.465 198.3,321.212 193.65,316.452C187.682,311.357 181.605,306.157 175.477,300.722C141.829,270.885 107.499,235.108 106.047,187.892C106.045,187.842 106.047,187.792 106.045,187.742C86.898,165.685 69.573,142.438 54.531,118.729L54.53,118.73ZM457.47,118.73C442.43,142.435 425.102,165.673 405.955,187.723C405.955,187.749 405.958,187.773 405.959,187.801C407.347,233.768 372.483,270.461 337.991,301.187C324.121,313.542 310.131,325.011 298.087,335.627C326.385,372.887 376.77,398.752 445.627,355.977C417.084,348.497 388.647,337.447 361.717,323.197C410.454,328.253 466.097,309.917 491.593,232.447C458.396,249.81 426.406,261.483 393.343,269.292C437.048,242.33 473.093,193.617 457.468,118.732L457.47,118.73Z" style="fill:rgb(132,222,197);fill-rule:nonzero;"/>
    <path d="M325.05,122.707L325.049,122.705C329.858,122.668 334.657,123.175 339.352,124.218C365.247,129.965 386.852,151.371 387.97,188.345C389.065,224.628 359.587,257.843 326.02,287.743C309.236,302.694 291.762,316.673 277.38,330.057C269.086,337.774 261.731,345.199 256.163,352.917C250.608,344.617 243.188,336.743 234.831,328.775C220.779,315.378 203.809,301.788 187.419,287.255C154.641,258.189 125.226,225.947 124.039,187.337C122.96,152.246 141.86,132.236 166.346,125.289L166.356,125.289C194.112,117.416 229.033,127.753 248.506,161.039L256.242,174.267L264.025,161.067C279.655,134.557 302.904,122.877 325.05,122.707Z" style="fill:rgb(255,0,112);"/>
</svg>
